!!!COM: Palestrina, Giovanni Perluigi da
!!!OPR: In te Domine speravi (1599)
!!!OTL: Agnus I
**kern	**kern	**kern	**kern	**kern	**kern
*Ibass	*Itenor	*Itenor	*Icalto	*Icant	*Icant
!Bassus	!Tenor 2	!Tenor 1	!Altus	!Cantus 2	!Cantus 1
*clefF4	*clefGv2	*clefGv2	*clefG2	*clefG2	*clefG2
*k[]	*k[]	*k[]	*k[]	*k[]	*k[]
*C:ion	*C:ion	*C:ion	*C:ion	*C:ion	*C:ion
*M4/2	*M4/2	*M4/2	*M4/2	*M4/2	*M4/2
=1	=1	=1	=1	=1	=1
0r	0r	0r	0r	0r	1cc
.	.	.	.	.	2cc
.	.	.	.	.	[2cc
=2	=2	=2	=2	=2	=2
0r	0r	0r	1c	0r	2cc]
.	.	.	.	.	2cc
.	.	.	2d	.	2b
.	.	.	[2f	.	2a
=3	=3	=3	=3	=3	=3
0r	0r	1r	4f]	1r	1cc
.	.	.	4e	.	.
.	.	.	4c	.	.
.	.	.	4d	.	.
.	.	1c	1e	2r	1g
.	.	.	.	2g	.
=4	=4	=4	=4	=4	=4
0r	0r	2c	2.A	2a	1cc
.	.	1c	.	2.cc	.
.	.	.	4B	.	.
.	.	.	4c	.	2ee
.	.	.	4d	4b	.
.	.	2c	4e	4g	[2gg
.	.	.	4f	4a	.
=5	=5	=5	=5	=5	=5
0r	0r	2B	2g	2b	2gg]
.	.	2A	2a	2.cc	2ff
.	.	1c	1g	.	2ee
.	.	.	.	4dd	.
.	.	.	.	2ee	[2cc
=6	=6	=6	=6	=6	=6
1r	1r	1G	2r	1dd	2cc]
.	.	.	2g	.	2b
1F	2r	1c	2a	1cc	1a
.	2c	.	4cc	.	.
.	.	.	4b	.	.
=7	=7	=7	=7	=7	=7
2F	2d	2r	4a	0r	4f
.	.	.	4g	.	4g
1F	2.f	1c	4f	.	4a
.	.	.	4g	.	4b
.	.	.	1a	.	1cc
.	4e	.	.	.	.
2F	4c	2A	.	.	.
.	4d	.	.	.	.
=8	=8	=8	=8	=8	=8
2E	2e	2B	2g	1r	1r
2D	2.f	2d	2.a	.	.
1F	.	[1c	.	1cc	2r
.	4g	.	4g	.	.
.	2a	.	[2f	.	4a
.	.	.	.	.	4b
=9	=9	=9	=9	=9	=9
0C	1g	1c]	2f]	2cc	4cc
.	.	.	.	.	4dd
.	.	.	4e	1cc	4ee
.	.	.	4d	.	4ff
.	2.c	2r	1e	.	1gg
.	.	2c	.	2cc	.
.	8B	.	.	.	.
.	8A	.	.	.	.
=10	=10	=10	=10	=10	=10
0r	2G	2d	0r	2b	2gg
.	2F	2.f	.	2a	2.cc
.	2.A	.	.	1cc	.
.	.	4e	.	.	4dd
.	.	4c	.	.	2ee
.	4B	4d	.	.	.
=11	=11	=11	=11	=11	=11
0r	2c	2e	2r	1g	2cc
.	2B	2.d	2g	.	2dd
.	1c	.	2g	1r	1ee
.	.	4c	.	.	.
.	.	[2c	[2g	.	.
=12	=12	=12	=12	=12	=12
2r	1G	2c]	2g]	1r	1dd
2G	.	2B	2g	.	.
2A	2r	1c	2f	2.cc	2r
[2c	2e	.	2e	.	2g
.	.	.	.	4dd	.
=13	=13	=13	=13	=13	=13
4c]	2c	2r	1g	4ee	4g
4B	.	.	.	4ff	4a
4G	2d	1d	.	2.gg	4b
4A	.	.	.	.	4cc
2B	2G	.	2d	.	2dd
.	.	.	.	4ff	.
2c	[2g	[2c	2g	[2ee	2ee
=14	=14	=14	=14	=14	=14
1A	2g]	2c]	2a	2ee]	1cc
.	2f#	2A	2.cc	2cc	.
1G	2.g	1B	.	2ee	2r
.	.	.	8b	.	.
.	.	.	8a	.	.
.	.	.	2b	[2dd	[2gg
.	4f	.	.	.	.
=15	=15	=15	=15	=15	=15
1C	2e	2c	[0g	4dd]	2gg]
.	.	.	.	4cc	.
.	2c	2.g	.	1cc	2ee
1G	1d	.	.	.	2dd
.	.	4f	.	.	.
.	.	2d	.	2b	[2gg
=16	=16	=16	=16	=16	=16
1C	2c	1e	1g]	1cc	4gg]
.	.	.	.	.	4ff
.	2g	.	.	.	4ee
.	.	.	.	.	4dd
1r	1a	1f	1r	2r	[1cc
.	.	.	.	2cc	.
=17	=17	=17	=17	=17	=17
0r	2g	1c	2r	1ee	1cc]
.	2e	.	2g	.	.
.	2f	1r	1a	2dd	2r
.	2f	.	.	2a	2cc
=18	=18	=18	=18	=18	=18
0r	2e	0r	2g	2cc	1ee
.	4d	.	2e	2cc	.
.	4c	.	.	.	.
.	1d	.	2f	2a	2dd
.	.	.	2f	4g	2a
.	.	.	.	4f	.
=19	=19	=19	=19	=19	=19
0r	1c	0r	2e	2g	2cc
.	.	.	4d	2.a	2cc
.	.	.	4c	.	.
.	1r	.	1e	.	2b
.	.	.	.	4g	.
.	.	.	.	[2g	4a
.	.	.	.	.	4g
=20	=20	=20	=20	=20	=20
0r	0r	2r	1d	2g]	1a
.	.	2d	.	2f#	.
.	.	1e	1r	2g	2g
.	.	.	.	2gg	2g
=21	=21	=21	=21	=21	=21
2r	0r	2d	0r	2ff	1a
2F	.	2A	.	2ff	.
1A	.	2c	.	2ee	2a
.	.	2c	.	4dd	2e
.	.	.	.	4cc	.
=22	=22	=22	=22	=22	=22
2G	1r	2B	2r	1dd	2g
2D	.	2.A	2f	.	2a
2F	2r	.	1a	1cc	1f
.	.	4B	.	.	.
2F	2c	4c	.	.	.
.	.	4A	.	.	.
=23	=23	=23	=23	=23	=23
2E	1e	2B	2g	1r	1g
4D	.	2c	2e	.	.
4C	.	.	.	.	.
1D	2d	1F	2f	2r	1r
.	2A	.	2f	2dd	.
=24	=24	=24	=24	=24	=24
1C	2c	1G	2e	1ee	0r
.	2c	.	4d	.	.
.	.	.	4c	.	.
1r	2B	2r	1d	2dd	.
.	4A	[2g	.	2b	.
.	4G	.	.	.	.
=25	=25	=25	=25	=25	=25
2r	1A	2g]	1c	2cc	0r
1c	.	2f#	.	2cc	.
.	1G	2.g	2r	2ee	.
2B	.	.	2g	2dd	.
.	.	4f	.	.	.
=26	=26	=26	=26	=26	=26
2c	0r	2e	2g	2cc	1r
2G	.	4d	1g	4b	.
.	.	4c	.	4a	.
2B	.	2d	.	1g	2r
2c	.	2g	2e	.	[2cc
=27	=27	=27	=27	=27	=27
1G	2r	2.g	1d	1r	2cc]
.	1g	.	.	.	2b
.	.	4f	.	.	.
1A	.	2e	1c	2r	2.cc
.	2f#	2c	.	[2cc	.
.	.	.	.	.	4dd
=28	=28	=28	=28	=28	=28
1G	2g	0r	0r	2cc]	2ee
.	2d	.	.	2b	2dd
1r	2f	.	.	2a	2cc
.	2g	.	.	[2g	2b
=29	=29	=29	=29	=29	=29
2r	2.d	1r	1r	2g]	1a
2D	.	.	.	2f#	.
.	4c	.	.	.	.
2E	2B	2r	2r	1g	2r
4C	2c	[2c	[2g	.	[2ee
4D	.	.	.	.	.
=30	=30	=30	=30	=30	=30
4E	1G	2c]	2g]	2r	2ee]
4F	.	.	.	.	.
2G	.	2B	2g	2.gg	2dd
1C	1g	2c	2.e	.	2ee
.	.	.	.	4ff	.
.	.	2G	.	2ee	[2gg
.	.	.	4f	.	.
=31	=31	=31	=31	=31	=31
0r	0r	2B	0g	2dd	4gg]
.	.	.	.	.	4ff
.	.	2c	.	2.cc	2ee
.	.	1G	.	.	1dd
.	.	.	.	8b	.
.	.	.	.	8a	.
.	.	.	.	2b	.
=32	=32	=32	=32	=32	=32
1r	2r	2.A	1c	2cc	[0cc
.	2f	.	.	2a	.
.	.	4B	.	.	.
2r	2e	[1c	2r	2g	.
[2F	2f	.	[2a	4a	.
.	.	.	.	4b	.
=33	=33	=33	=33	=33	=33
2F]	2c	1c]	2a]	4cc	1cc_
.	.	.	.	4dd	.
2E	2g	.	2g	2ee	.
2F	2a	2r	2f	2a	1cc_
2C	4g	[2c	2e	[2ee	.
.	4f	.	.	.	.
=34	=34	=34	=34	=34	=34
1E	4e	2c]	1g	4ee]	0cc]
.	4d	.	.	4ff	.
.	4c	2c	.	2gg	.
.	4B	.	.	.	.
1F	2.A	2.c	1a	1ff	.
.	4B	4d	.	.	.
=35	=35	=35	=35	=35	=35
[0C	2.c	1e	[0g	[0ee	[0cc
.	4d	.	.	.	.
.	1e	1c	.	.	.
=36	=36	=36	=36	=36	=36
0C]	0e	0c	0g]	0ee]	0cc]
==	==	==	==	==	==
*-	*-	*-	*-	*-	*-
!!!CDT: 1525/^1526/-1594/2/2
!!!OCY: Italia
!!!AGN: Mass (Parody)
!!!AST: renaissance, vocal
!!!ASW: Motet 1532 (Lupus Hellinck)
!!!PWK: Masses, Book 9
!!!RNB: Cadence finals: G,D
!!!YOR: Le Opere Complete, v. 25, p. 131
!!!YOO: Rome, Italy: Fratelli Scalera
!!!END: 1992//
!!!EED: John Miller
!!!YEC: Copyright 2000, John Miller
!!!YEN: United States of America
!!!YEM: Rights to all derivative electronic formats reserved.
!!!YEM: Refer to licensing agreement for further details.
!!!YEM: This file must be accompanied by the licensing agreement.
!!!YEM: A copy of the licensing agreement may be found at http://www.music-cog.ohio-state.edu/HumdrumDatabases/Palestrina/license.txt
!!!EMD: converted to Humdrum by Bret Aarden
